static/assets/img/icons/theme/weather/cloud-sun.svg

<svg height="24" viewBox="0 0 24 24" width="24" xmlns="http://www.w3.org/2000/svg"><g fill="none" fill-rule="evenodd"><path d="m0 0h24v24h-24z" opacity="0"/><g fill="#000"><path d="m13 16c-2.209139 0-4-1.790861-4-4s1.790861-4 4-4 4 1.790861 4 4-1.790861 4-4 4zm7.5-5.5h1.5c.8284271 0 1.5.6715729 1.5 1.5s-.6715729 1.5-1.5 1.5h-1.5c-.8284271 0-1.5-.6715729-1.5-1.5s.6715729-1.5 1.5-1.5zm-3.4393398-4.62867966 1.0606601-1.06066017c.5857865-.58578644 1.5355339-.58578644 2.1213204 0 .5857864.58578644.5857864 1.53553391 0 2.12132035l-1.0606602 1.06066017c-.5857864.58578643-1.5355339.58578643-2.1213203 0-.5857865-.58578644-.5857865-1.53553391 0-2.12132035zm-4.0606602-4.37132034c.8284271 0 1.5.67157288 1.5 1.5v1.5c0 .82842712-.6715729 1.5-1.5 1.5s-1.5-.67157288-1.5-1.5v-1.5c0-.82842712.6715729-1.5 1.5-1.5zm-7.18933983 3.31066017c.58578644-.58578644 1.53553391-.58578644 2.12132035 0l1.06066017 1.06066017c.58578643.58578644.58578643 1.53553391 0 2.12132035-.58578644.58578643-1.53553391.58578643-2.12132035 0l-1.06066017-1.06066017c-.58578644-.58578644-.58578644-1.53553391 0-2.12132035z" fill-rule="nonzero" opacity=".3"/><path d="m4.74714567 20.0425758c-1.65304205-1.0685402-2.74714567-2.9277872-2.74714567-5.0425758 0-3.3137085 2.6862915-6 6-6 2.7957591 0 5.1449096 1.9121592 5.8109738 4.5h2.4390262c2.0710678 0 3.75 1.6789322 3.75 3.75s-1.6789322 3.75-3.75 3.75h-9c-.96182105 0-1.83906822-.3621038-2.50285433-.9574242z"/></g></g></svg>

<svg width="24px" height="24px" viewBox="0 0 24 24" version="1.1" xmlns="http://www.w3.org/2000/svg" xmlns:xlink="http://www.w3.org/1999/xlink">
    <title>Icon For Cloud-sun</title>
    <g stroke="none" stroke-width="1" fill="none" fill-rule="evenodd">
        <polygon points="0 0 24 0 24 24 0 24" opacity="0"></polygon>
        <path d="M13,16 C10.790861,16 9,14.209139 9,12 C9,9.790861 10.790861,8 13,8 C15.209139,8 17,9.790861 17,12 C17,14.209139 15.209139,16 13,16 Z M20.5,10.5 L22,10.5 C22.8284271,10.5 23.5,11.1715729 23.5,12 C23.5,12.8284271 22.8284271,13.5 22,13.5 L20.5,13.5 C19.6715729,13.5 19,12.8284271 19,12 C19,11.1715729 19.6715729,10.5 20.5,10.5 Z M17.0606602,5.87132034 L18.1213203,4.81066017 C18.7071068,4.22487373 19.6568542,4.22487373 20.2426407,4.81066017 C20.8284271,5.39644661 20.8284271,6.34619408 20.2426407,6.93198052 L19.1819805,7.99264069 C18.5961941,8.57842712 17.6464466,8.57842712 17.0606602,7.99264069 C16.4748737,7.40685425 16.4748737,6.45710678 17.0606602,5.87132034 Z M13,1.5 C13.8284271,1.5 14.5,2.17157288 14.5,3 L14.5,4.5 C14.5,5.32842712 13.8284271,6 13,6 C12.1715729,6 11.5,5.32842712 11.5,4.5 L11.5,3 C11.5,2.17157288 12.1715729,1.5 13,1.5 Z M5.81066017,4.81066017 C6.39644661,4.22487373 7.34619408,4.22487373 7.93198052,4.81066017 L8.99264069,5.87132034 C9.57842712,6.45710678 9.57842712,7.40685425 8.99264069,7.99264069 C8.40685425,8.57842712 7.45710678,8.57842712 6.87132034,7.99264069 L5.81066017,6.93198052 C5.22487373,6.34619408 5.22487373,5.39644661 5.81066017,4.81066017 Z" fill="#000000" fill-rule="nonzero" opacity="0.3"></path>
        <path d="M4.74714567,20.0425758 C3.09410362,18.9740356 2,17.1147886 2,15 C2,11.6862915 4.6862915,9 8,9 C10.7957591,9 13.1449096,10.9121592 13.8109738,13.5 L16.25,13.5 C18.3210678,13.5 20,15.1789322 20,17.25 C20,19.3210678 18.3210678,21 16.25,21 L7.25,21 C6.28817895,21 5.41093178,20.6378962 4.74714567,20.0425758 Z" fill="#000000"></path>
    </g>
</svg>
